Hatter-kde/actions/22/download-later.svg

<svg xmlns="http://www.w3.org/2000/svg" viewBox="0 0 22 22">
  <defs id="defs3051">
    <style type="text/css" id="current-color-scheme">
      .ColorScheme-Text {
        color:#363636;
      }
      </style>
  </defs>
 <path 
    style="fill:currentColor;fill-opacity:1;stroke:none" 
    d="M 11 3 C 6.5680018 3 3 6.568 3 11 C 3 15.092537 6.0443284 18.441581 10 18.931641 L 10 17.921875 C 6.6006429 17.438059 4 14.537216 4 11 C 4 10.757625 4.0113433 10.519094 4.0351562 10.283203 C 4.3923512 6.7448366 7.3643762 4 11 4 C 14.877999 4 18 7.122 18 11 C 18 11.340784 17.968487 11.672498 17.921875 12 L 18.931641 12 C 18.97229 11.67189 19 11.339463 19 11 C 19 6.568 15.431998 3 11 3 z M 10 5 L 10 12 L 16 12 L 16 11 L 11 11 L 11 5 L 10 5 z M 16 13 L 16 17.292969 L 13.707031 15 L 13 15.707031 L 16.292969 19 L 16.5 19.207031 L 16.707031 19 L 20 15.707031 L 19.292969 15 L 17 17.292969 L 17 13 L 16 13 z "
    class="ColorScheme-Text"
    />  
</svg>

<?xml version="1.0" encoding="UTF-8"?>
<svg viewBox="0 0 22 22" xmlns="http://www.w3.org/2000/svg">
 <defs id="defs3051">
  <style id="current-color-scheme" type="text/css">.ColorScheme-Text {
        color:#363636;
      }</style>
 </defs>
 <path class="ColorScheme-Text" d="m11 3c-4.432 0-8 3.568-8 8 0 4.0925 3.0443 7.4416 7 7.9316v-1.0098c-3.3994-0.48382-6-3.3847-6-6.9219 0-0.24238 0.011343-0.48091 0.035156-0.7168 0.3572-3.5384 3.3292-6.2832 6.9648-6.2832 3.878 0 7 3.122 7 7 0 0.34078-0.031513 0.6725-0.078125 1h1.0098c0.040649-0.32811 0.068359-0.66054 0.068359-1 0-4.432-3.568-8-8-8zm-1 2v7h6v-1h-5v-6h-1zm6 8v4.293l-2.293-2.293-0.70703 0.70703 3.5 3.5 3.5-3.5-0.70703-0.70703-2.293 2.293v-4.293h-1z" fill="currentColor"/>
</svg>
